X:620
T:Willafjord #2
C:Joe Buchanan's Scottish Tome - Page 183.1
I:183 1
Z:Carl Allison
R:Reel
L:1/8
M:4/4
K:D
B2 | "D"A2 F(A "D/F#"A)DFA | "G"B2 G(B B)DGB | "D"A2 F(A A)DFA | "Em"EFGA "A7"GFED |
"D"A2 F(A "D/F#"A)DFA | "G"B2 G(B B)DGB | "A"ABcd efge | "D"f2 "G"d2 "D"d2 :|
e2 | "D"f2 df ffdf | "Em"feaf gfeg | "D"f2 d(f f)Adf | "A7"e2c(e e)Ace |
"D"f2 d(f f)fdf | "Em"geaf gfed | "A"ABcd efge | "D"f2 "G"d2 "D"d2 :|

